X: 1
T: Jones Falls Hornpipe
T: 8 x 32R 3C (Charles Inglis)
P: Eileen Black of Ottawa
C: by Anne Hooper, 8-27-01
C: arr. Terry Traub 8-25-2004
R: Reel
M: 4/4
K: A
L: 1/8
|: AB|"A"cdef ecAc|"D"dcde "E7"fefg|"A"a2 A2 Acec|"Bm"BcBA "E7"GEFG|"A"AGAc "E"BABd|
"A7"cBAc "D"d2 cB|"A"cecA "E7"EGBG|"A"A2 A2 A2 :||: BA|"E"GFEG B2 cB|"A"AGAB c2 BA|"E"GFEF  GABc|
"B7"B e2 ^d "E"e2 "A7"ce|"D"dcde "E"fefg|"A"agab "A"c'aec|"D"Bfed "E7"cBAG|"A"A2 A2 A2:|
